X: 582
%
U:~=!turn!
T: The Soldier's Joy
C:
O:Scotland
B:Keith Norman MacDonald : "The Skye collection of the best reels & strathspeys extant" : 1887
Z:Ralph Palmer
R:Reel
M:C
L:1/8
K:D
B2 | AFDF AFDF | .A2 .d2 .d2 (cB) | AFDF AFDF | G2 E2 E2 (FG) |
AFDF AFDF | .A2 .d2 .d2 .g2 | fafd egec | .d2 .d2 .d2 .B2 | AFDF AFDF |
A2 d2 d2 (cB) | AFDF AFDF | .G2 .E2 .E2 (FG) | AFDF AFDF | .A2 .d2 .d2 .g2 |
fafd egec | .d2 .d2 .d2 || g2 | fdfd fagf | ecec egfe | fdfd fagf |
edcB A2 g2 | fdfd fagf | ecec egfe | fafd egec | d2 d2 d2 |]


